X:1
T:Gabriel angelus
T:Gabriel angelus
T:Herman Mathias Werrecoren
T:Source : Il primo libro di madrigali a 3 voci---Venetia---A.Gardano---1559. Editor: André Vierendeels (25/10/14).
T:Notes : Original clefs : C4, C4, F4 Original note values have been halved Editorial accidentals above the staff Square brackets indicate ligatures m86 in T2 "mi" pointed in original print
T:b
T:-natural
C:Herman Mathias Werrecoren
%%score [ 1 2 3 ]
L:1/8
Q:1/4=100
M:2/2
K:F
V:1 treble-8 nm="Tenor 1" snm="T 1"
V:2 treble-8 nm="Tenor 2" snm="T 2"
V:3 bass nm="Bass" snm="B"
V:1
 d4 d2 B2 | c4 d4 | G3 F GA B2- | B2 A2 B3 c | de d3 c de | fd f3 e dc | d4 c3 B | A2 A2 GF GA | %8
w: Ga- bri- el|an- ge-|lus _ _ _ _|_ ap- pa- *|||* ru- *|it, ap- pa- * * *|
 B3 A FG A2 | G2 A3 G F2- | F2 E2 F4 | D2 A4 F2 | B2 G2 d4- | d4 d3 c | A2 B3 A F2 | G4 F2 f2- | %16
w: ||* ru- it,|ap- pa- ru-|it, ap- pa|_ _ _||ru- it, ap-|
 f2 d3 e f2 | e4 d4- | d4 c4 | d4 d3 c | BA B4 AG | F8 | z8 | z8 | d6 d2 | d4 c4 |"^b" e4 d4 | %27
w: * pa- * *|ru- it,|_ ap-|pa- * *|* * * ru- *|it|||Za- cha-|ri- e|di- cens,|
 G2 B2 A2 B2- | BA G4 F2 | D2 E2 C2 c2- | c2 B2 G4 | A2 B4 AG | B2 A2 F4 | c4 z4 | z8 | %35
w: Za- cha- ri- e|_ _ di- *|* * cesn, Za|_ cha- ri-|e di- * *||cens:||
 z2 G2 G2 G2 | B6 A2 | F2 G2 A4 | z4 z2 A2 | A2 A2 c4- | c2 B2 G2 A2 | B8 | A3 G AB c2 | %43
w: na- sce- tur|ti- bi|fi- li- us,|na-|sce- tur ti-|* bi fi- li-|us,|ti- * * * *|
 F2 A2 B2 c2 | A2 B2 z2 d2 | d2 d2 f3 e | dc B4 A2 | B2 d4 cB | A2 f4 ed | c2 B2 c4 | B3 c d4- | %51
w: bi fi- * *|li- us, na-|sce- tur ti- *||bi fi- * *|* li- * *||us, _ _|
 d4 z4 | z8 | z8 | z2 f3 f f2 | e2 d2 f4 | e4 d4 | c2 B2 A4 | G4 z2 G2 | d4 d4- | d4 z2 d2- | %61
w: _|||no- men e-|ius Io- an-|nes vo-|ca- * bi-|tur et|mul- ti|_ in|
 d2 f2 e2 d2 | d4 c2 d2- | d2 cB A2 B2- | B2 AG B2 A2 | B8 | A2 B4 AG | F2 D2 E2 F2- | FE D4 C2 | %69
w: _ na- ti- vi-|ta- te e-|||us|gau- de- * *|bunt, gau- de- *||
 D4 z4 | z8 | z2 d3 c dB | c2 B3 A FG | A2 GA BG Bc | d3 c/B/ A2 f2- | f2 d2 c2 f2 | e2 d2 f4 | %77
w: bunt||gau- * * *|* de- * * *||* * * bunt, gau-|* de- * *|* bunt, gau-|
 e2 d4 c2 | B2 A3 G G2 | B4 A2 G2- | G2 F2 G3 A | Bc d2 A2 c2- | cB G2 A4 | G8- | G8- | G8 |] %86
w: de- * *|||* * bunt, _|_ _ _ gau- de-||bunt.|_||
V:2
 z8 | z8 | d4 d2 B2 | c4 d4 | G3 F GA B2- | B2 AG F3 G | A2 B2 A2 G2- | G2 F2 G4 | D3 C DE F2- | %9
w: ||Ga- bri- el|an- ge-|lus _ _ _ _|_ _ _ _ _|* ap- pa- ru-|* * it,|ap- * pa- * *|
 F2 E2 F4 | G4 A4 | F4 D4 | d4 B2 F2 | B4 A4 | d8 |"^b" B3 c de d2- | dc B3 A d2- | dB c2 d2 B2- | %18
w: * ru- it,|ap- pa-|ru- it,|ap- pa- ru-|it, _|ap-|pa- * * * *||* * ru- it, ap-|
 BA FG A3 G | A2 B3 A F2 | G2 D2 G4 | z4 A4- | A2 A2 A4 | G4 B4 | A2 B4 AG | A2 B2 G2 A2 | %26
w: |* pa- * *|* ru- it|Za|_ cha- ri-|e di-||* * * cens,|
 z2 c2 B2 G2 | d8 | G4 A2 B2- | BA G4 F2 | G3 F ED E2- | ED d3 c/B/ c2 | d4 z2 A2 | A2 A2 c4- | %34
w: Za cha- ri-|e|di- * *||||cens: na-|sce- tur ti-|
 c2 BA G2 A2 | B2 c3 C D2 |"^-natural" _E2 D3 E FG | A2 B2 z2 d2 | d2 d2 f3 e/d/ | c3 B A2 G2- | %40
w: * * * bi fi-|li- us, na- sce-|tur ti- * * *|* bi, na-|sce- tur ti- * *|* * bi fi-|
 G2 F2 G2 d2 | z2 d2 d2 d2 | f6 e2 | c2 d2 e4 | d3 c BA B2 | G4 z4 | z2 d2 d2 d2 | f6 ed | %48
w: * * li- us,|na- sce- tur|ti- bi|fi- * *|* * * * li-|us|na- sce- tur|ti- * *|
 c2 d4 cB | A2 B3 A A2 | B8 | z2 f3 f f2 | e2 d2 f3 f | e2 d4 c2 | d3 c AB cA | Bc d3 c AB | %56
w: * bi _ _|_ fi- * li-|us,|no- men e-|ius Io- an- nes|vo- ca- bi-|tur, _ _ _ _ _|_ _ vo- * * *|
 cB GA B3 A | AG G3 F F2 | G2 G2 c4 | B2 A2 B4 | A2 B4 AG | B2 A2 c2 B2 | G4 z4 | z8 | z2 d4 f2 | %65
w: |* * ca- * bi-|tur et mul-|ti in na-|ti- vi- * *|ta- te e- *|ius,||in na-|
 e2 d2 d4 | c2 d4 cB | A2 F2 G2 A2 | D4 E4 | D2 d3 c dB | c2 d2 B2 B2 | A2 B3 G AB | GA Bc d2 Ac- | %73
w: ti- vi- ta-|te e- * *|ius gau- de- *||bunt, gau- * * *|* de- bunt, gau-|de- * * * *||
 cd e2 d4 | D3 E FD FG | A3 B c3 A | Bc d4 c2 | B4 A2 G2 | F3 E E2 G2- | G2 F2 E2 D2- | %80
w: * * * bunt|gau- * * * * *|de- * * *|||* * bunt, gau-|* de- * *|
 D2 C2 D2 E2 | D3 E FG A2- |"^#" AG G4 F2 | G2 _E4 C2 |"^b" D2 E4 DC | D8 |] %86
w: |||bunt, gau- de-||bunt.|
V:3
 z8 | z8 | z8 | z8 | z8 | z4 D,4 | D,2 B,,2 C,4 | D,4 G,,3 F,, | G,,A,, B,,4 A,,2 | B,,2 C,2 D,4 | %10
w: |||||Ga-|bri- el an-|ge- lus _|_ _ _ ap-|pa- * ru-|
 C,4 F,,4 | z8 | z4 z2 B,,2- | B,,2 G,,2 D,3 E, | F,2 G,3 F, D,2 |"^-natural" _E,3 D, B,,C, D,E, | %16
w: * it,||ap-|* pa- ru- *|||
 F,2 G,4 F,2 | G,2 A,2 B,2 G,2- | G,F, D,E, F,3 E, | D,C, B,,3 C, D,2 | G,,4 z4 | D,6 D,2 | %22
w: * it, ap-|pa- ru- it, ap-|* * pa- * * *|* * * * ru-||Za cha-|
 D,4 C,4 |"^-natural" _E,4 D,3 E, | F,E,/F,/ G,4 F,E, | F,2 G,2 C,2 F,2 | _E,2 C,2 G,2 B,2- | %27
w: ri- e|di- * *||* * cens, Za-|cha- ri- e di-|
 B,A, G,2 F,2 G,2 | _E,4 D,3 C, | B,,2 C,2 A,,4 | G,,4 C,4- | C,2 B,,2 _E,4 | D,8 | %33
w: |||cens, di-||cens:|
 z2 A,,2 A,,2 A,,2 | C,6 B,,A,, | G,,2 C,4 B,,2 | G,,A,, B,,C, D,4- | D,2 B,,2 C,2 D,2 | %38
w: na- sce- tur|ti- * *|bi fi- *||* * * li-|
 G,,2 D,2 D,2 D,2 | F,6 E,2 | C,2 D,2 _E,2 D,2- | D,C, B,,A,, G,,2 G,2 | F,2 D,E, F,G, A,2- | %43
w: us, na- sce- tur|ti- bi|fi- * li- us,|_ _ _ _ _ na-|sce- tur _ _ _ ti-|
 A,2 F,2 G,2 A,2 | D,2 G,2 G,2 G,2 | B,6 A,G, | F,2 G,2 D,4 | z2 B,,3 C, D,E, | F,2 B,,3 C, D,E, | %49
w: * bi fi- li-|us, na- sce- tur|ti- * *|* * bi|fi- * * *||
 F,2 G,2 F,4 | B,,4 z4 | B,3 B, B,2 A,2 | G,2 B,4 A,2 | G,2 F,2 _E,3 D, | %54
w: * * li-|us,|no- men e- ius|Io- han- nes|vo- ca- * *|
"^-natural" B,,C, D,E, F,G, A,F, | G,A, B,3 A, F,G, | A,G, E,F, G,2 D,2 | F,2 G,2 D,3 C, | %58
w: |||* bi- tur _|
 B,,2 C,4 B,,A,, | G,,2 D,2 G,4 | F,2 G,4 F,E, | D,4 z2 G,2- | G,2 B,2 A,2 G,2 | G,4 F,2 G,2- | %64
w: _ _ _ _|* et mul-||ti in|_ na- ti- vi-|ta- te e-|
 G,2 F,E, D,4 | G,,3 A,, B,,C, D,E, | F,E, D,C, B,,2 C,2 | D,4 C,2 A,,2 | B,,4 A,,4 | %69
w: * * * ius|gau- * * * * *|de- * * * * *||* bunt,|
 A,2 B,3 A, B,G, | A,2 G,3 F, D,E, | F,2 G,2 D,E, F,G, | E,F, G,2 G,,2 D,C, | A,,B,, C,2 G,,3 A,, | %74
w: gau- de- * * *|* bunt, _ _ _|_ gau- de- * * *|* * bunt, gau- de- *|* * bunt, gau _|
 B,,G,, B,,C, D,3 E, | F,D, F,G, A,3 F, | G,A, B,4 A,2 | G,4 F,2 E,2 | D,3 C, C,2 _E,2- | %79
w: _ _ _ _ de- *|||||
 E,2 D,2 C,2 B,,2 | A,,4 G,,2 G,,2- | G,,A,, B,,C, D,2 C,2 | _E,4 D,4 | G,,2 C,3 D, _E,2- | %84
w: |* bunt, gau-|* * * * de- *||bunt, gau- * de-|
 E,D, B,,2 C,4 | G,,8 |] %86
w: |bunt|

